!!!OTL: DA UNTEN IN DER MUEHLE                                           0126
!!!ARE: Europa, Mitteleuropa, Deutschland
!!!SCT: F0210
!!!YEM: Copyright 1995, estate of Helmut Schaffrath.
**kern
*ICvox
*Ivox
*M6/8
*k[b-]
*F:
{8f
=1
4f
8f
4f
8f
=2
8f
8e}
{8f
4g
8g
=3
2g
8f
8g
=4
[4.a
8a]
8r}
{8f
=5
4f
8f
4f
8f
=6
4.a
4g}
{8g
=7
4f
8f
8e
8d
8e
=8
2f
8r}
==
!!!AGN: Stimmungs - Lied, Todes - Ahnung
!!!ONB: ESAC (Essen Associative Code) Database: FINK
!!!AMT: compound duple
!!!AIN: vox
!!!EED: Helmut Schaffrath
!!!EEV: 1.0
*-
